!!!!SEGMENT: Gas/Gas0202d-Missa_Et_trop_penser-Sanctus.krn
!!!COM: Gaspar van Weerbeke
!!!CDT: ~1450-~1517
!!!OPR: Missa Et trop penser
!!!OTL: Sanctus
!!!OMV: 4
!!!AGN: Mass
!!!SCT: Gas0202d
!!!SCA: Gas0202d
!!!voices: 4
**kern	**text	**kern	**text	**kern	**text	**kern	**text
*part4	*part4	*part3	*part3	*part2	*part2	*part1	*part1
*staff4	*staff4	*staff3	*staff3	*staff2	*staff2	*staff1	*staff1
*I"Bassus	*	*I"Tenor	*	*I"Altus	*	*I"Superius	*
*I'B	*	*I'T	*	*I'A	*	*I'S	*
*>[A,B,C,D,E,C]	*>[A,B,C,D,E,C]	*>[A,B,C,D,E,C]	*>[A,B,C,D,E,C]	*>[A,B,C,D,E,C]	*>[A,B,C,D,E,C]	*>[A,B,C,D,E,C]	*>[A,B,C,D,E,C]
*>Sanctus[A]	*>Sanctus[A]	*>Sanctus[A]	*>Sanctus[A]	*>Sanctus[A]	*>Sanctus[A]	*>Sanctus[A]	*>Sanctus[A]
*>Pleni[B]	*>Pleni[B]	*>Pleni[B]	*>Pleni[B]	*>Pleni[B]	*>Pleni[B]	*>Pleni[B]	*>Pleni[B]
*>Osanna[C]	*>Osanna[C]	*>Osanna[C]	*>Osanna[C]	*>Osanna[C]	*>Osanna[C]	*>Osanna[C]	*>Osanna[C]
*>Benedictus[D]	*>Benedictus[D]	*>Benedictus[D]	*>Benedictus[D]	*>Benedictus[D]	*>Benedictus[D]	*>Benedictus[D]	*>Benedictus[D]
*>QuiVenit[E]	*>QuiVenit[E]	*>QuiVenit[E]	*>QuiVenit[E]	*>QuiVenit[E]	*>QuiVenit[E]	*>QuiVenit[E]	*>QuiVenit[E]
*>A	*>A	*>A	*>A	*>A	*>A	*>A	*>A
*clefF4	*	*clefGv2	*	*clefGv2	*	*clefG2	*
*k[b-]	*	*k[b-]	*	*k[b-]	*	*k[b-]	*
*M3/1	*	*M3/1	*	*M3/1	*	*M3/1	*
*met(O)	*	*met(O)	*	*met(O)	*	*met(O)	*
!!section: Sanctus
=1	=1	=1	=1	=1	=1	=1	=1
1.G	San-	0.r	.	0.r	.	1g	San-
.	.	.	.	.	.	2d	.
1C	.	.	.	.	.	2.e	.
.	.	.	.	.	.	4f	.
2BB-y	.	.	.	.	.	[2g	.
=2	=2	=2	=2	=2	=2	=2	=2
1GG	-ctus,	0.r	.	1G	San-	2g]	.
.	.	.	.	.	.	4f	.
.	.	.	.	.	.	4e	.
1r	.	.	.	2D	.	2f	.
*	*	*	*	*col	*	*	*
.	.	.	.	2.E	.	2.g	.
1r	.	.	.	.	.	.	.
.	.	.	.	4F	.	4a	.
*	*	*	*	*Xcol	*	*	*
.	.	.	.	[2G	.	[2b-y	.
=3	=3	=3	=3	=3	=3	=3	=3
0.r	.	0.r	.	2G]	.	2b-]	.
.	.	.	.	2E	.	1cc	.
.	.	.	.	1F	.	.	.
.	.	.	.	.	.	4b-y	.
.	.	.	.	.	.	4a	.
.	.	.	.	2.G	.	1g	-ctus,
.	.	.	.	4A	.	.	.
=4	=4	=4	=4	=4	=4	=4	=4
0.r	.	0.r	.	2B-y	.	2r	.
.	.	.	.	2.c	.	2.a	San-
.	.	.	.	4B-y	.	4b-y	.
.	.	.	.	2A	.	4cc	.
.	.	.	.	.	.	4dd	.
.	.	.	.	1G	-ctus,	2b-y	.
.	.	.	.	.	.	4a	.
.	.	.	.	.	.	4g	.
!!LO:LB:g=original
=5	=5	=5	=5	=5	=5	=5	=5
0.r	.	0.r	.	2.A	San-	1f	.
.	.	.	.	4B-y	.	.	.
.	.	.	.	4c	.	2e	.
.	.	.	.	4d	.	.	.
*	*	*	*	*	*	*col	*
.	.	.	.	1B-y	.	2.d	.
.	.	.	.	.	.	4c	.
*	*	*	*	*	*	*Xcol	*
.	.	.	.	4A	.	2B-y	.
.	.	.	.	4G	.	.	.
=6	=6	=6	=6	=6	=6	=6	=6
1r	.	0.r	.	0F#i	-ctus,	0A	-ctus,
1D	San-	.	.	.	.	.	.
*	*	*	*	*	*edit	*	*
2E	.	.	.	2.G	San-	1r	.
[2G	.	.	.	.	.	.	.
.	.	.	.	4A	.	.	.
=7	=7	=7	=7	=7	=7	=7	=7
2G]	.	0.r	.	4B-y	.	0.r	.
.	.	.	.	4c	.	.	.
4F	.	.	.	2.d	.	.	.
4E	.	.	.	.	.	.	.
2.D	.	.	.	.	.	.	.
.	.	.	.	4c	.	.	.
.	.	.	.	2B-y	.	.	.
4E	.	.	.	.	.	.	.
4F	.	.	.	2A	.	.	.
4G	.	.	.	.	.	.	.
[2A	.	.	.	2D	.	.	.
=8	=8	=8	=8	=8	=8	=8	=8
2A]	.	0.r	.	2F	.	1r	.
1G	.	.	.	2G	.	.	.
.	.	.	.	1A	-ctus,	1cc	San-
2F	.	.	.	.	.	.	.
2G	.	.	.	2r	.	2.b-y	.
2E	.	.	.	2G	San-	.	.
.	.	.	.	.	.	4g	.
=9	=9	=9	=9	=9	=9	=9	=9
1F	-ctus	0.r	.	1c	.	4a	.
.	.	.	.	.	.	4g	.
.	.	.	.	.	.	4f	.
.	.	.	.	.	.	4e	.
1r	.	.	.	2B-y	.	2d	.
.	.	.	.	4A	.	2.f	.
.	.	.	.	4G	.	.	.
1r	.	.	.	2F	.	.	.
.	.	.	.	.	.	4e	.
.	.	.	.	[2G	.	4d	.
.	.	.	.	.	.	4c	.
!!LO:LB:g=original
=10	=10	=10	=10	=10	=10	=10	=10
0.r	.	0.r	.	2G]	.	2B-y	.
.	.	.	.	2F	.	2A	.
.	.	.	.	2G	.	2B-y	.
.	.	.	.	2E	.	2G	.
.	.	.	.	2.F	.	2.A	.
.	.	.	.	4E	.	4B-y	.
=11	=11	=11	=11	=11	=11	=11	=11
0.r	.	0.r	.	2F	.	2A	.
.	.	.	.	2G	.	2.B-y	.
*	*	*	*	*lig	*	*	*
.	.	.	.	1D	.	.	.
.	.	.	.	.	.	4A	.
.	.	.	.	.	.	1d	.
.	.	.	.	1E	.	.	.
.	.	.	.	.	.	2c#i	.
*	*	*	*	*Xlig	*	*	*
=12	=12	=12	=12	=12	=12	=12	=12
1.A	Do-	0.r	.	0D	.	0d	-ctus
4G	.	.	.	.	.	.	.
4F	.	.	.	.	.	.	.
2B-y	.	.	.	1D	-ctus	1r	.
[2A	-mi-	.	.	.	.	.	.
=13	=13	=13	=13	=13	=13	=13	=13
*	*	*	*	*	*Xedit	*	*
4A]	.	0.r	.	1c	Do-	1.a	Do-
4G	.	.	.	.	.	.	.
4F	.	.	.	.	.	.	.
4E	.	.	.	.	.	.	.
1D	-nus	.	.	1d	.	.	.
.	.	.	.	.	.	4g	.
.	.	.	.	.	.	4f	.
2G	De-	.	.	2B-y	-mi-	2b-y	.
2F	.	.	.	2c	.	[2a	-mi-
=14	=14	=14	=14	=14	=14	=14	=14
1D	.	0.r	.	1d	-nus	4a]	.
.	.	.	.	.	.	4g	.
.	.	.	.	.	.	4f	.
.	.	.	.	.	.	4e	.
1G	.	.	.	2.B-y	De-	1d	-nus,
.	.	.	.	4G	.	.	.
2F	.	.	.	2A	.	2r	.
*	*	*	*	*	*	*	*edit
[2D	.	.	.	2B-y	.	[2f	Do-
!!LO:LB:g=original
=15	=15	=15	=15	=15	=15	=15	=15
2D]	.	0.r	.	2A	.	4f]	.
.	.	.	.	.	.	4g	.
2F	.	.	.	1d	.	2a	.
1E	.	.	.	.	.	2g	.
.	.	.	.	2c#i	.	2e	.
[1D	-us,	.	.	1d	-us,	2f	.
*	*	*	*	*	*	*col	*
.	.	.	.	.	.	[2a	.
=16	=16	=16	=16	=16	=16	=16	=16
1D]	.	0.r	.	2r	.	4a]	.
.	.	.	.	.	.	4g	.
*	*	*	*	*	*	*Xcol	*
*	*	*	*	*	*edit	*	*
.	.	.	.	2.d	Do-	2.f	.
1r	.	.	.	.	.	.	.
.	.	.	.	4c	.	4e	.
.	.	.	.	1B-y	.	4d	.
.	.	.	.	.	.	4c	.
1r	.	.	.	.	.	2d	.
.	.	.	.	4A	.	4c	.
.	.	.	.	4G	.	4B-y	.
=17	=17	=17	=17	=17	=17	=17	=17
1r	.	0.r	.	2F	.	2A	.
*	*	*	*	*	*	*col	*
.	.	.	.	2.G	-mi-	2.B-y	-mi-
1r	.	.	.	.	.	.	.
.	.	.	.	4F	.	4A	.
*	*	*	*	*	*	*Xcol	*
.	.	.	.	2.A	.	2.c	.
*	*edit	*	*	*	*	*	*
*col	*	*	*	*	*	*	*
2.AA	Do-	.	.	.	.	.	.
.	.	.	.	4B-y	.	4B-y	.
.	.	.	.	[2c	.	4A	.
4BB-y	.	.	.	.	.	4G	.
*Xcol	*	*	*	*	*	*	*
=18	=18	=18	=18	=18	=18	=18	=18
2C	.	0.r	.	2c]	.	2A	-nus
1BB-y	.	.	.	1d	-nus	2B-y	.
.	.	.	.	.	.	2G	.
*	*	*	*	*	*	*	*Xedit
2GG	-mi-	.	.	2B-y	.	1g	De-
1D	-nus	.	.	1A	De-	.	.
.	.	.	.	.	.	2f#i	.
!!LO:PB:g=original
=19	=19	=19	=19	=19	=19	=19	=19
*lig	*	*lig	*	*	*	*	*
*col	*	*	*	*	*	*	*
[0.E-X	De-	[0.G	San-	1G	-us,	0g	-us,
.	.	.	.	1r	.	.	.
*	*	*	*	*lig	*	*	*
.	.	.	.	[1B-y	do-	1r	.
=20	=20	=20	=20	=20	=20	=20	=20
*	*	*	*	*	*	*lig	*
*	*	*	*	*	*	*	*edit
1E-]	.	0.G]	.	1B-]	.	1b-y	Do-
0C	.	.	.	0e-i	.	0cc	.
*Xcol	*	*	*	*	*	*	*
*Xlig	*	*	*	*	*	*	*
=21	=21	=21	=21	=21	=21	=21	=21
*	*	*	*	*	*	*col	*
1BB-y	-us,	0.B-y	.	0f	.	0dd	.
*col	*	*	*	*	*	*	*
2.BB-y	Do-	.	.	.	.	.	.
4C	.	.	.	.	.	.	.
*Xcol	*	*	*	*	*	*	*
*	*	*	*	*Xlig	*	*Xlig	*
2D	.	.	.	2f	-mi-	[1b-y	-mi-
*col	*	*	*	*	*	*	*
[2E-i	.	.	.	[2g	.	.	.
=22	=22	=22	=22	=22	=22	=22	=22
4E-]	.	0.G	.	2g]	.	1b-]	.
4F	.	.	.	.	.	.	.
*Xcol	*	*	*	*	*	*	*
2.G	.	.	.	1e-i	.	.	.
.	.	.	.	.	.	2g	-nus
4F	.	.	.	.	.	.	.
4E-i	.	.	.	1d	-nus	2.b-y	De-
4D	.	.	.	.	.	.	.
1E-i	.	.	.	.	.	.	.
.	.	.	.	.	.	4a	.
.	.	.	.	2c	.	2g	.
*	*	*	*	*	*	*Xcol	*
*	*	*Xlig	*	*	*	*	*
!!LO:LB:g=original
=23	=23	=23	=23	=23	=23	=23	=23
*	*	*lig	*	*	*	*	*
1.D	-mi-	0.A	-ctus,	1.d	De-	1.f	.
2E	.	.	.	4c	.	2g	.
.	.	.	.	4B-y	.	.	.
1F	.	.	.	1A	.	1a	.
=24	=24	=24	=24	=24	=24	=24	=24
1G	-nus	0.B-y	.	0G	-us	0d	-us
0GG	De-	.	.	.	.	.	.
*	*	*	*	*	*Xedit	*	*
.	.	.	.	1G	Sa-	1dd	Sa-
*	*	*Xlig	*	*	*	*	*
=25	=25	=25	=25	=25	=25	=25	=25
*	*	*lig	*	*	*	*	*
*	*	*	*	*	*edit	*	*
0.BB-y	-us	[0.d	San-	2.D	-ba-	0dd	-ba-
.	.	.	.	4E-i	.	.	.
.	.	.	.	2F	.	.	.
.	.	.	.	2G	.	.	.
.	.	.	.	2F	.	2.b-y	.
.	.	.	.	[2B-y	.	.	.
.	.	.	.	.	.	4a	.
=26	=26	=26	=26	=26	=26	=26	=26
*	*	*	*	*	*	*lig	*
*	*Xedit	*	*	*	*	*	*
1.B-y	Sa-	0.d]	.	4B-]	.	1.f	.
.	.	.	.	4c	.	.	.
.	.	.	.	4d	.	.	.
.	.	.	.	4e-i	.	.	.
.	.	.	.	2f	.	.	.
2G	.	.	.	2g	.	1.b-y	.
*	*	*	*	*	*	*Xlig	*
1B-y	.	.	.	[1f	.	.	.
=27	=27	=27	=27	=27	=27	=27	=27
*	*edit	*	*	*	*	*	*
0F	-ba-	0c	.	2f]	.	2.a	.
.	.	.	.	4e-i	.	.	.
.	.	.	.	4d	.	4b-y	.
.	.	.	.	2c	.	2cc	.
.	.	.	.	2f	.	2a	.
*	*	*Xlig	*	*	*	*	*
2G	.	1B-y	.	2d	.	2b-y	.
2E-i	.	.	.	2e-i	.	[2g	.
!!LO:LB:g=original
=28	=28	=28	=28	=28	=28	=28	=28
*	*	*lig	*	*	*	*	*
1F	.	1A	-ctus	0c	.	4g]	.
.	.	.	.	.	.	4f	.
.	.	.	.	.	.	2f	.
0C	.	0G	.	.	.	4g	.
.	.	.	.	.	.	4f	.
.	.	.	.	.	.	4e	.
.	.	.	.	.	.	4d	.
.	.	.	.	1c	-oth,	1e	.
=29	=29	=29	=29	=29	=29	=29	=29
0D	-oth,	0.F	.	2.A	Sa-	0f	-oth,
.	.	.	.	4F	.	.	.
.	.	.	.	2A	.	.	.
.	.	.	.	2B-y	.	.	.
*col	*	*	*	*	*	*	*
2.D	Sa-	.	.	2A	.	2r	.
.	.	.	.	[2d	.	[2f	Sa-
4E	.	.	.	.	.	.	.
*Xcol	*	*	*	*	*	*	*
*	*	*Xlig	*	*	*	*	*
=30	=30	=30	=30	=30	=30	=30	=30
1F	.	0.r	.	4d]	.	4f]	.
.	.	.	.	4c	.	4e-j	.
.	.	.	.	2A	.	2c	.
2BB-y	.	.	.	2B-y	.	2d	.
2C	.	.	.	1G	-ba-	2B-y	-ba-
1D	.	.	.	.	.	1A	-oth,
.	.	.	.	2F#i	.	.	.
=31	=31	=31	=31	=31	=31	=31	=31
1GG	.	0.r	.	1G	-oth,	2g	Sa-
.	.	.	.	.	.	1b-y	.
2BB-y	.	.	.	2r	.	.	.
2C	.	.	.	2G	Sa-	1g	-ba-
1AA	-ba-	.	.	2A	.	.	.
.	.	.	.	2c	.	2f#i	.
!!LO:LB:g=original
=32	=32	=32	=32	=32	=32	=32	=32
0GG	-oth,	2G	Do-	2B-y	.	1g	-oth,
.	.	1B-y	.	1d	.	.	.
.	.	.	.	.	.	2r	.
*	*	*	*	*	*	*	*Xedit
.	.	1G	-mi-	2B-y	.	2g	Sa-
1r	.	.	.	1A	-ba-	2a	.
.	.	2F#i	.	.	.	2cc	.
=33	=33	=33	=33	=33	=33	=33	=33
1r	.	0G	-nus	1G	-oth,	2b-y	.
.	.	.	.	.	.	1dd	.
1r	.	.	.	2d	Sa-	.	.
.	.	.	.	2e	.	2b-y	.
1F	De-	1A	De-	2.f	.	1a	.
.	.	.	.	4e	.	.	.
=34	=34	=34	=34	=34	=34	=34	=34
1G	-us	2B-y	.	4d	.	2g	.
.	.	.	.	4c	.	.	.
.	.	1d	.	1B-y	.	1b-y	.
2r	.	.	.	.	.	.	.
2F	Sa-	2c	.	2f	.	2a	.
1G	.	2B-y	.	2d	.	2g	.
.	.	2G	.	2g	.	2dd	.
=35	=35	=35	=35	=35	=35	=35	=35
2A	.	2c	.	2e	.	2cc	.
2D	.	2d	.	2f	.	1a	.
*	*	*	*	*	*Xedit	*	*
2G	-ba-	2B-y	.	2d	-ba-	.	.
*	*	*	*	*	*	*	*edit
2E-i	.	2c	.	2c	.	1g	-ba-
*	*	*	*	*	*edit	*	*
1D	-oth,	1A	.	1d	-oth,	.	.
.	.	.	.	.	.	2f#i	.
=36	=36	=36	=36	=36	=36	=36	=36
0.r	.	0.G	-us	2.B-y	Sa-	1g	-oth,
.	.	.	.	4c	.	.	.
.	.	.	.	2d	.	1r	.
.	.	.	.	2G	.	.	.
.	.	.	.	2.d	-ba-	1b-y	Sa-
.	.	.	.	4e	.	.	.
!!LO:PB:g=original
=37	=37	=37	=37	=37	=37	=37	=37
0.r	.	0d	Sa-	1f	-oth,	2.a	.
.	.	.	.	.	.	4g	.
.	.	.	.	2r	.	2.f	.
.	.	.	.	2B-y	Sa-	.	.
.	.	.	.	.	.	4d	.
.	.	1A	.	1c	-ba-	1e	.
=38	=38	=38	=38	=38	=38	=38	=38
*col	*	*	*	*	*	*	*
2.BB-y	Sa-	0B-y	.	1d	-oth,	2.d	.
4C	.	.	.	.	.	4e	.
*Xcol	*	*	*	*	*	*	*
2D	.	.	.	1r	.	2f	.
2.E-i	.	.	.	.	.	1g	.
.	.	1c	.	2.G	Sa-	.	.
4D	.	.	.	.	.	.	.
2C	.	.	.	.	.	4f	.
.	.	.	.	4A	.	4e	.
=39	=39	=39	=39	=39	=39	=39	=39
2BB-y	.	1d	.	1B-y	.	2f	.
2GG	.	.	.	.	.	2b-y	.
2AA	.	2c	.	2c	.	2a	.
2BB-y	.	2B-y	.	2d	.	1g	.
*	*Xedit	*	*	*	*	*	*
2C	-ba-	1A	-ba-	2e	.	.	.
*	*	*	*	*	*	*	*Xedit
2D	.	.	.	2f	.	2f#i	-ba-
=40	=40	=40	=40	=40	=40	=40	=40
1GG	-oth,	[0.Gl	-oth.	2.B-y	.	[0.gl	-oth.
.	.	.	.	4c	.	.	.
2r	.	.	.	2d	.	.	.
*	*edit	*	*	*	*	*	*
1C	Sa-	.	.	1e-X	.	.	.
2BB-y	-ba-	.	.	2d	-ba-	.	.
=41	=41	=41	=41	=41	=41	=41	=41
*	*	*	*	*	*Xedit	*	*
0.GGl	-oth.	0.G]	.	0.dl	-oth.	0.g]	.
!!LO:LB:g=original
=42||	=42||	=42||	=42||	=42||	=42||	=42||	=42||
*>B	*>B	*>B	*>B	*>B	*>B	*>B	*>B
*M2/1	*	*M2/1	*	*M2/1	*	*M2/1	*
*met(C)	*	*met(C)	*	*met(C)	*	*met(C)	*
!!section: Pleni
*	*Xedit	*	*	*	*	*	*
1.G	Ple-	0r	.	1G	Ple-	0r	.
.	.	.	.	2.B-y	.	.	.
2E	.	.	.	.	.	.	.
.	.	.	.	4G	.	.	.
=43	=43	=43	=43	=43	=43	=43	=43
2F	.	0r	.	2A	.	0r	.
2G	.	.	.	2B-y	.	.	.
2C	.	.	.	2c	.	.	.
*	*	*	*	*lig	*	*	*
[2G	.	.	.	[2e-i	.	.	.
=44	=44	=44	=44	=44	=44	=44	=44
2G]	.	0r	.	2e-]	.	1r	.
2F	.	.	.	1d	.	.	.
1E-i	.	.	.	.	.	1g	Ple-
*	*	*	*	*Xlig	*	*	*
.	.	.	.	2c	.	.	.
=45	=45	=45	=45	=45	=45	=45	=45
1D	-ni,	0r	.	1d	-ni,	2f	.
.	.	.	.	.	.	1a	.
1r	.	.	.	2r	.	.	.
*	*	*	*	*	*edit	*	*
.	.	.	.	2d	ple-	4g	.
.	.	.	.	.	.	4f	.
=46	=46	=46	=46	=46	=46	=46	=46
0r	.	0r	.	2c	.	2e	.
.	.	.	.	2.B-y	.	2.d	.
.	.	.	.	4A	.	4c	.
.	.	.	.	2G	.	2B-y	.
=47	=47	=47	=47	=47	=47	=47	=47
1r	.	0r	.	2F	.	2A	.
.	.	.	.	1G	.	2G	.
2r	.	.	.	.	.	1A	-ni,
*	*edit	*	*	*	*	*	*
2D	ple-	.	.	2F#i	.	.	.
!!LO:LB:g=original
=48	=48	=48	=48	=48	=48	=48	=48
1E	.	0r	.	4G	-ni	2r	.
.	.	.	.	4A	.	.	.
*	*	*	*	*	*	*	*edit
.	.	.	.	4B-y	.	2G	ple-
.	.	.	.	4c	.	.	.
*	*	*	*	*	*Xedit	*	*
2F	-ni	.	.	2A	sunt	2A	.
*	*Xedit	*	*	*	*	*	*
[2G	sunt	.	.	2G	.	[2B-y	-ni
=49	=49	=49	=49	=49	=49	=49	=49
4G]	.	0r	.	0r	.	4B-]	.
4F	.	.	.	.	.	4c	.
*	*	*	*	*	*	*	*Xedit
2D	.	.	.	.	.	2.d	sunt
2G	.	.	.	.	.	.	.
.	.	.	.	.	.	4c	.
[2F	.	.	.	.	.	2A	.
=50	=50	=50	=50	=50	=50	=50	=50
2F]	.	0r	.	2r	.	0r	.
2D	.	.	.	2F	ce-	.	.
1C	.	.	.	2G	.	.	.
.	.	.	.	2A	.	.	.
=51	=51	=51	=51	=51	=51	=51	=51
*lig	*	*	*	*	*	*	*
1BB-y	ce-	0r	.	1D	-li,	2r	.
.	.	.	.	.	.	2d	ce-
1AA	.	.	.	1r	.	2e	.
.	.	.	.	.	.	2f	.
*Xlig	*	*	*	*	*	*	*
=52	=52	=52	=52	=52	=52	=52	=52
1GG	-li,	0r	.	2r	.	1B-y	-li,
*	*	*	*	*	*edit	*	*
.	.	.	.	2D	ce-	.	.
1r	.	.	.	2E	-li	2r	.
*	*	*	*	*	*Xedit	*	*edit
.	.	.	.	2F	et	2d	ce-
=53	=53	=53	=53	=53	=53	=53	=53
1r	.	0r	.	2G	ter-	2e	-li
*	*	*	*	*	*	*	*Xedit
.	.	.	.	2A	.	2f	et
2r	.	.	.	4G	.	2g	ter-
.	.	.	.	2G	.	.	.
*	*edit	*	*	*	*	*	*
2D	ce-	.	.	.	.	2a	.
.	.	.	.	4F#i	.	.	.
!!LO:LB:g=original
=54	=54	=54	=54	=54	=54	=54	=54
2E	-li	0r	.	2G	-ra,	2g	.
*	*Xedit	*	*	*	*edit	*	*
2F	et	.	.	2A	et	2cc	.
*col	*	*	*	*	*	*	*
2.G	ter-	.	.	2.B-y	ter-	2b-y	-ra
.	.	.	.	.	.	2g	.
4F	.	.	.	4A	.	.	.
*Xcol	*	*	*	*	*	*	*
=55	=55	=55	=55	=55	=55	=55	=55
2G	.	0r	.	2B-y	.	0r	.
2A	.	.	.	2c	.	.	.
2D	-ra,	.	.	2.d	.	.	.
*	*edit	*	*	*	*	*	*
[2G	et	.	.	.	.	.	.
.	.	.	.	4c	.	.	.
=56	=56	=56	=56	=56	=56	=56	=56
4G]	.	0r	.	2B-y	.	0r	.
4F	.	.	.	.	.	.	.
2G	.	.	.	4A	.	.	.
.	.	.	.	4G	.	.	.
4A	ter-	.	.	2.F	.	.	.
4G	.	.	.	.	.	.	.
4F	.	.	.	.	.	.	.
4E	.	.	.	4G	.	.	.
=57	=57	=57	=57	=57	=57	=57	=57
2.F	.	0r	.	4A	.	0r	.
.	.	.	.	4B-y	.	.	.
.	.	.	.	2.A	.	.	.
4G	.	.	.	.	.	.	.
2D	.	.	.	.	.	.	.
.	.	.	.	4B-y	.	.	.
4C	.	.	.	[2c	.	.	.
4D	.	.	.	.	.	.	.
=58	=58	=58	=58	=58	=58	=58	=58
4E-i	.	0r	.	4c]	.	0r	.
4D	.	.	.	4B-y	.	.	.
4C	.	.	.	4A	.	.	.
4BB-y	.	.	.	4G	.	.	.
2AA	.	.	.	2F	.	.	.
2BB-y	.	.	.	[2G	.	.	.
!!LO:LB:g=original
=59	=59	=59	=59	=59	=59	=59	=59
2C	.	0r	.	4G]	.	1r	.
.	.	.	.	4E	.	.	.
2D	.	.	.	2F	.	.	.
*	*	*	*	*	*	*	*edit
2GG	.	.	.	4G	.	2G	glo-
.	.	.	.	4E	.	.	.
2AA	.	.	.	2F#i	.	2c	.
=60	=60	=60	=60	=60	=60	=60	=60
1GG	-ra	0r	.	1G	-ra	2B-y	.
.	.	.	.	.	.	2d	.
1r	.	.	.	2r	.	2.c	-ri-
*	*	*	*	*	*Xedit	*	*
.	.	.	.	2c	glo-	.	.
.	.	.	.	.	.	8B-yL	.
.	.	.	.	.	.	8AJ	.
=61	=61	=61	=61	=61	=61	=61	=61
0r	.	0r	.	2B-y	.	1G	-a,
.	.	.	.	2d	.	.	.
.	.	.	.	2.c	-ri-	2g	glo-
.	.	.	.	.	.	2a	.
.	.	.	.	4A	.	.	.
=62	=62	=62	=62	=62	=62	=62	=62
0r	.	0r	.	1G	-a,	2.b-y	.
.	.	.	.	.	.	4cc	.
*	*	*	*	*	*edit	*	*
.	.	.	.	2d	glo-	2a	-ri-
.	.	.	.	2e	.	2g	-a,
=63	=63	=63	=63	=63	=63	=63	=63
*	*Xedit	*	*	*	*	*	*Xedit
1D	glo-	0r	.	2.f	.	2.a	glo-
.	.	.	.	4g	.	4b-y	.
2A	-ri-	.	.	2e	.	2cc	.
2B-y	-a	.	.	[2d	.	[2dd	.
!!LO:PB:g=original
=64	=64	=64	=64	=64	=64	=64	=64
*	*edit	*	*	*	*	*	*
2.G	tu-	0r	.	2d]	.	4dd]	.
.	.	.	.	.	.	4cc	.
.	.	.	.	2.g	.	2.b-y	.
4A	.	.	.	.	.	.	.
2B-y	.	.	.	.	.	.	.
.	.	.	.	4f	.	4a	.
[2F	.	.	.	[2a	.	[2cc	.
=65	=65	=65	=65	=65	=65	=65	=65
2F]	.	0r	.	4a]	.	4cc]	.
.	.	.	.	4g	.	4b-y	.
2G	.	.	.	4f#i	.	4a	.
.	.	.	.	4e	.	4g	.
1D	-a,	.	.	1f#i	-ri-	1a	-ri-
=66	=66	=66	=66	=66	=66	=66	=66
0r	.	0r	.	4g	-a	2.g	-a
.	.	.	.	4f	.	.	.
.	.	.	.	4e-j	.	.	.
.	.	.	.	4d	.	4f	.
.	.	.	.	4c	.	4e-j	.
.	.	.	.	4B-y	.	4d	.
.	.	.	.	4A	.	4c	.
.	.	.	.	4G	.	4B-y	.
=67	=67	=67	=67	=67	=67	=67	=67
*	*	*	*	*	*Xedit	*	*
2r	.	0r	.	2c	tu-	4A	.
.	.	.	.	.	.	4G	.
2GG	glo-	.	.	2B-y	.	1g	tu-
1D	-ri-	.	.	1A	.	.	.
.	.	.	.	.	.	2f#i	.
=68	=68	=68	=68	=68	=68	=68	=68
2GG	-a	0r	.	[0Gl	-a.	[0gl	-a.
*	*Xedit	*	*	*	*	*	*
2C	tu-	.	.	.	.	.	.
2BB-y	.	.	.	.	.	.	.
2C	.	.	.	.	.	.	.
=69	=69	=69	=69	=69	=69	=69	=69
0GGl	-a.	0r	.	0G]	.	0g]	.
!!LO:LB:g=original
=70||	=70||	=70||	=70||	=70||	=70||	=70||	=70||
*>C	*>C	*>C	*>C	*>C	*>C	*>C	*>C
*M2/1	*	*M2/1	*	*M2/1	*	*M2/1	*
*met(C|)	*	*met(C|)	*	*met(C|)	*	*met(C|)	*
!!section: Osanna
*	*	*lig	*	*	*	*	*
*	*	*	*edit	*	*	*	*
[0D	O-	[0d	O-	[0A	O-	[0f	O-
=71	=71	=71	=71	=71	=71	=71	=71
*	*	*	*	*	*	*col	*
0D_	.	0d_	.	1A]	.	1.f]	.
.	.	.	.	1B-y	.	.	.
.	.	.	.	.	.	2g	.
*	*	*	*	*	*	*Xcol	*
=72	=72	=72	=72	=72	=72	=72	=72
0D_	.	0d]	.	1A	.	[0a	-san-
.	.	.	.	[1d	-san-	.	.
=73	=73	=73	=73	=73	=73	=73	=73
*	*	*	*	*	*	*col	*
0D]	.	[0A	.	2d]	.	1.a]	.
.	.	.	.	1f	.	.	.
.	.	.	.	4e	.	4g	.
.	.	.	.	4d	.	4f	.
*	*	*	*	*	*	*Xcol	*
=74	=74	=74	=74	=74	=74	=74	=74
0r	.	0A]	.	2.c#i	.	0e	.
.	.	.	.	4Bni	.	.	.
.	.	.	.	1c#i	.	.	.
*	*	*Xlig	*	*	*	*	*
=75	=75	=75	=75	=75	=75	=75	=75
*	*	*lig	*	*	*	*	*
1.BB-y	.	[0B-y	-san-	1.d	-na,	1d	-na,
*	*	*	*	*	*	*	*edit
.	.	.	.	.	.	[1dd	o-
2C	.	.	.	2e	.	.	.
=76	=76	=76	=76	=76	=76	=76	=76
1D	.	0B-]	.	1f	.	1dd]	.
*	*	*	*	*	*edit	*	*
[1E-i	-san-	.	.	[1g	o-	1b-y	.
!!LO:LB:g=original
=77	=77	=77	=77	=77	=77	=77	=77
1E-]	.	0c	.	1g]	.	1g	.
1C	.	.	.	1e-i	.	1a	.
*	*	*Xlig	*	*	*	*	*
=78	=78	=78	=78	=78	=78	=78	=78
*lig	*	*lig	*	*	*	*	*
0BB-y	-na,	[0d	.	1d	.	1.b-y	.
.	.	.	.	[1f	-san-	.	.
.	.	.	.	.	.	2a	.
=79	=79	=79	=79	=79	=79	=79	=79
0B-y	.	0d]	.	1f_	.	1f	.
*	*	*	*	*col	*	*	*
.	.	.	.	1f_	.	1b-y	.
*Xlig	*	*	*	*	*	*	*
=80	=80	=80	=80	=80	=80	=80	=80
*lig	*	*	*	*	*	*	*
*	*edit	*	*	*	*	*	*
0F	o-	0c	.	2f]	.	2a	.
.	.	.	.	4e-i	.	2.a	.
.	.	.	.	4d	.	.	.
*	*	*	*	*Xcol	*	*	*
.	.	.	.	1c	-na,	.	.
.	.	.	.	.	.	4g	.
.	.	.	.	.	.	4f	.
.	.	.	.	.	.	4e	.
*	*	*Xlig	*	*	*	*	*
=81	=81	=81	=81	=81	=81	=81	=81
*	*	*lig	*	*	*	*	*
0G	.	0B-y	.	1r	.	1d	.
.	.	.	.	[1d	o-	[1g	-san-
=82	=82	=82	=82	=82	=82	=82	=82
0D	.	0A	.	2d]	.	1g]	.
.	.	.	.	2.f	-san-	.	.
.	.	.	.	.	.	1f#i	.
.	.	.	.	4e	.	.	.
.	.	.	.	4d	.	.	.
.	.	.	.	4c	.	.	.
*Xlig	*	*Xlig	*	*	*	*	*
=83	=83	=83	=83	=83	=83	=83	=83
*lig	*	*	*	*	*	*	*
*	*	*	*	*col	*	*	*
0E-i	-san-	0G	-na,	3%4B-y	-na,	[0g	-na,
.	.	.	.	3%2B-y	o-	.	.
!!LO:LB:g=original
=84	=84	=84	=84	=84	=84	=84	=84
*	*	*	*	*	*	*col	*
*	*	*	*	*lig	*	*	*
0C	.	0r	.	3%2c	-san-	1.g]	.
.	.	.	.	3%2G	.	.	.
*	*	*	*	*Xlig	*	*	*
.	.	.	.	3%2A	.	.	.
*	*	*	*	*Xcol	*	*	*
.	.	.	.	.	.	4f	.
.	.	.	.	.	.	4e-j	.
*	*	*	*	*	*	*Xcol	*
*Xlig	*	*	*	*	*	*	*
=85	=85	=85	=85	=85	=85	=85	=85
*lig	*	*	*	*	*	*	*
1BB-y	-na,	0r	.	1B-y	-na,	1d	.
1C	.	.	.	2G	o-	1e	o-
.	.	.	.	[2A	-san-	.	.
=86	=86	=86	=86	=86	=86	=86	=86
0AA	.	0r	.	4A]	.	2f	-san-
.	.	.	.	4G	.	.	.
.	.	.	.	2G	.	2e	.
.	.	.	.	2.F#i	.	2d	.
.	.	.	.	.	.	2c	.
.	.	.	.	4E	.	.	.
*Xlig	*	*	*	*	*	*	*
=87	=87	=87	=87	=87	=87	=87	=87
*	*	*lig	*	*	*	*	*
2.GG	o-	[0G	o-	0G	-na,	2.B-	.
4AA	.	.	.	.	.	4c	.
2BB-y	.	.	.	.	.	2d	.
[2C	.	.	.	.	.	[2e-i	.
=88	=88	=88	=88	=88	=88	=88	=88
4C]	.	0G]	.	1r	.	4e-]	.
4D	.	.	.	.	.	4f	.
1E-i	.	.	.	.	.	1g	.
.	.	.	.	2.B-y	o-	.	.
4D	.	.	.	.	.	4f	.
4C	.	.	.	4c	.	4e-i	.
=89	=89	=89	=89	=89	=89	=89	=89
1BB-y	.	0B-y	.	1d	.	1d	-na,
[1E-i	.	.	.	2B-y	.	2r	.
.	.	.	.	[2e-i	-san-	[2g	o-
!!LO:PB:g=original
=90	=90	=90	=90	=90	=90	=90	=90
1E-]	.	0G	.	2e-]	.	4g]	.
.	.	.	.	.	.	4a	.
.	.	.	.	4d	.	1b-y	.
.	.	.	.	4c	.	.	.
1E-i	-san-	.	.	2.B-y	.	.	.
.	.	.	.	.	.	4a	.
.	.	.	.	4c	.	4g	.
*	*	*Xlig	*	*	*	*	*
=91	=91	=91	=91	=91	=91	=91	=91
*	*	*lig	*	*	*	*	*
0D	-na	[0A	-san-	1.d	.	1.f	.
.	.	.	.	4c	.	4e	.
.	.	.	.	4B-y	.	4d	.
=92	=92	=92	=92	=92	=92	=92	=92
0r	.	0A_	.	2.c	.	2e	.
.	.	.	.	.	.	2f	.
.	.	.	.	4d	.	.	.
.	.	.	.	2e	.	2e	.
.	.	.	.	[2f	.	[2a	-san-
=93	=93	=93	=93	=93	=93	=93	=93
0r	.	0A]	.	2f]	.	2a]	.
.	.	.	.	4e	.	2bni	.
.	.	.	.	4d	.	.	.
.	.	.	.	1e	.	1cc#i	.
=94	=94	=94	=94	=94	=94	=94	=94
1r	.	0B-y	-na,	[0d	-na	1.dd	-na
*	*Xedit	*	*	*	*	*	*
2.B-y	in	.	.	.	.	.	.
.	.	.	.	.	.	2cc	.
4A	.	.	.	.	.	.	.
*	*	*Xlig	*	*	*	*	*
=95	=95	=95	=95	=95	=95	=95	=95
2F	.	0r	.	0d]	.	2a	.
*	*	*	*	*	*	*	*Xedit
*	*	*	*	*	*	*col	*
1G	ex-	.	.	.	.	2.b-y	in
.	.	.	.	.	.	4a	.
*	*	*	*	*	*	*Xcol	*
2F	.	.	.	.	.	2a	ex-
!!LO:LB:g=original
=96	=96	=96	=96	=96	=96	=96	=96
*	*	*	*	*	*Xedit	*	*
2.G	.	0r	.	[0B-y	in	1b-y	-cel-
4F	.	.	.	.	.	.	.
2D	.	.	.	.	.	2f	.
[2E-i	.	.	.	.	.	[2g	.
=97	=97	=97	=97	=97	=97	=97	=97
2E-]	.	0r	.	1B-]	.	2g]	.
2D	.	.	.	.	.	2f	.
*	*edit	*	*	*	*edit	*	*
1E-i	-cel-	.	.	1G	ex-	1g	.
=98	=98	=98	=98	=98	=98	=98	=98
*	*	*lig	*	*lig	*	*	*
*	*	*	*	*	*	*	*edit
0D	-sis,	[0d	o-	1A	-cel-	0f	-sis,
.	.	.	.	1B-y	.	.	.
*	*	*	*	*Xlig	*	*	*
=99	=99	=99	=99	=99	=99	=99	=99
0r	.	0d]	.	1F	.	1a	in
.	.	.	.	1G	.	1b-y	.
=100	=100	=100	=100	=100	=100	=100	=100
0r	.	[0c	.	1.A	.	1.cc	ex-
.	.	.	.	2G	.	2b-y	.
=101	=101	=101	=101	=101	=101	=101	=101
1r	.	0c]	.	2.F	.	1a	.
.	.	.	.	4E	.	.	.
1C	in	.	.	2C	.	[1g	.
.	.	.	.	[2G	.	.	.
*	*	*Xlig	*	*	*	*	*
!!LO:LB:g=original
=102	=102	=102	=102	=102	=102	=102	=102
1E-X	ex-	1B-y	-san-	1G]	.	2g]	.
.	.	.	.	.	.	2f	.
1F	.	1A	.	[1c	-sis,	1f	-cel-
=103	=103	=103	=103	=103	=103	=103	=103
*lig	*	*lig	*	*	*	*	*
0C	-cel-	0G	-na,	0c]	.	2g	.
.	.	.	.	.	.	2e	.
.	.	.	.	.	.	2.e	.
.	.	.	.	.	.	4d	.
=104	=104	=104	=104	=104	=104	=104	=104
0D	.	0F	.	0A	o-	0f	-sis,
*Xlig	*	*Xlig	*	*	*	*	*
=105	=105	=105	=105	=105	=105	=105	=105
[0GG	-sis,	0r	.	1.G	-san-	1g	o-
.	.	.	.	.	.	[1b-y	-san-
.	.	.	.	2F	.	.	.
=106	=106	=106	=106	=106	=106	=106	=106
0GG]	.	1r	.	0D	-na	1b-]	.
.	.	1G	o-	.	.	[1g	.
=107	=107	=107	=107	=107	=107	=107	=107
*	*	*lig	*	*	*	*	*
1r	.	0B-y	-san-	0d	in	1g]	.
1D	o-	.	.	.	.	1f	.
=108	=108	=108	=108	=108	=108	=108	=108
*lig	*	*	*	*	*	*	*
*	*	*	*	*	*	*lig	*
1E-i	-san-	0G	.	1r	.	1g	-na
*	*	*	*	*	*Xedit	*	*
1G	.	.	.	1B-y	ex-	1b-y	.
*Xlig	*	*	*	*	*	*Xlig	*
*	*	*Xlig	*	*	*	*	*
!!LO:LB:g=original
=109	=109	=109	=109	=109	=109	=109	=109
*	*	*lig	*	*	*	*	*
1F	-na	1A	-na	1f	.	1cc	in
2r	.	1B-y	.	[1d	-cel-	[1dd	ex-
[2G	in	.	.	.	.	.	.
=110	=110	=110	=110	=110	=110	=110	=110
2G]	.	0d	.	2d]	.	2dd]	.
4F	.	.	.	2e-i	.	2cc	.
4E-i	.	.	.	.	.	.	.
*	*	*	*	*	*edit	*	*
1D	.	.	.	1f	-sis,	2b-y	.
.	.	.	.	.	.	2a	.
*	*	*Xlig	*	*	*	*	*
=111	=111	=111	=111	=111	=111	=111	=111
1C	ex-	1e-X	in	1g	in	1cc	.
2D	.	2d	.	2f	.	2b-y	.
*	*	*	*	*col	*	*	*
[2F	.	[2c	.	[2f	ex-	[2a	.
=112	=112	=112	=112	=112	=112	=112	=112
2F]	.	2c]	.	4f]	.	2a]	.
.	.	.	.	4e-i	.	.	.
*	*	*	*	*Xcol	*	*	*
2G	.	4B-y	.	2d	.	2g	.
.	.	4A	.	.	.	.	.
1E-i	.	1G	ex-	2.c	.	[1g	-cel-
.	.	.	.	4B-y	.	.	.
=113	=113	=113	=113	=113	=113	=113	=113
*	*Xedit	*	*	*	*	*	*
0D	-cel-	0A	-cel-	0d	-cel-	1g]	.
.	.	.	.	.	.	1f#i	.
=114	=114	=114	=114	=114	=114	=114	=114
*	*	*	*	*	*Xedit	*	*Xedit
0GGl	-sis.	0Gl	-sis.	0dl	-sis.	0gl	-sis.
!!LO:PB:g=original
=115||	=115||	=115||	=115||	=115||	=115||	=115||	=115||
*>D	*>D	*>D	*>D	*>D	*>D	*>D	*>D
*M2/1	*	*M2/1	*	*M2/1	*	*M2/1	*
*met(C|)	*	*met(C|)	*	*met(C|)	*	*met(C|)	*
!!section: Benedictus
0r	.	0r	.	0d	Be-	[0f	Be-
=116	=116	=116	=116	=116	=116	=116	=116
*	*	*	*	*col	*	*	*
0r	.	0r	.	2.d	-ne-	0f_	.
.	.	.	.	4c	.	.	.
*	*	*	*	*Xcol	*	*	*
.	.	.	.	1A	-di-	.	.
=117	=117	=117	=117	=117	=117	=117	=117
0r	.	0r	.	0d	-ctus,	0f]	.
=118	=118	=118	=118	=118	=118	=118	=118
*	*	*	*	*	*	*lig	*
*	*	*	*	*	*edit	*	*
0r	.	0r	.	2.G	be-	[0b-y	-ne-
.	.	.	.	4A	.	.	.
.	.	.	.	2B-y	.	.	.
.	.	.	.	2c	.	.	.
=119	=119	=119	=119	=119	=119	=119	=119
0r	.	0r	.	2d	.	0b-]	.
.	.	.	.	2e	.	.	.
.	.	.	.	2f	.	.	.
.	.	.	.	[2g	.	.	.
=120	=120	=120	=120	=120	=120	=120	=120
0r	.	0r	.	2g]	.	0a	.
.	.	.	.	4f#i	.	.	.
.	.	.	.	4e	.	.	.
.	.	.	.	1f#i	-ne-	.	.
*	*	*	*	*	*	*Xlig	*
!!LO:LB:g=original
=121	=121	=121	=121	=121	=121	=121	=121
*	*	*	*	*	*	*lig	*
0r	.	0r	.	1.g	-di-	1g	-di-
.	.	.	.	.	.	[1b-y	.
.	.	.	.	4f	.	.	.
.	.	.	.	4e	.	.	.
=122	=122	=122	=122	=122	=122	=122	=122
*	*	*	*	*lig	*	*	*
0r	.	0r	.	0d	.	2b-]	.
*	*	*	*	*	*	*Xlig	*
.	.	.	.	.	.	4a	.
.	.	.	.	.	.	4g	.
.	.	.	.	.	.	2b-y	.
.	.	.	.	.	.	[2a	.
=123	=123	=123	=123	=123	=123	=123	=123
0r	.	0r	.	0c	.	2a]	.
.	.	.	.	.	.	4g	.
.	.	.	.	.	.	4f	.
.	.	.	.	.	.	2a	.
.	.	.	.	.	.	[2g	.
*	*	*	*	*Xlig	*	*	*
=124	=124	=124	=124	=124	=124	=124	=124
0r	.	0r	.	1B-y	-ctus,	2g]	.
.	.	.	.	.	.	4f	.
.	.	.	.	.	.	4e	.
.	.	.	.	2r	.	2g	.
.	.	.	.	[2d	be-	[2f	.
=125	=125	=125	=125	=125	=125	=125	=125
0r	.	0r	.	2d]	.	2f]	.
.	.	.	.	4c	.	4e	.
.	.	.	.	4B-y	.	4d	.
.	.	.	.	2c	.	2e	.
.	.	.	.	2B-y	.	[2d	.
!!LO:LB:g=original
=126	=126	=126	=126	=126	=126	=126	=126
0r	.	0r	.	1G	-ne-	2d]	.
.	.	.	.	.	.	1g	.
.	.	.	.	1A	-di-	.	.
.	.	.	.	.	.	2f#i	.
=127	=127	=127	=127	=127	=127	=127	=127
0r	.	0r	.	1G	-ctus,	0g	-ctus,
*	*	*	*	*lig	*	*	*
.	.	.	.	[1c	be-	.	.
=128	=128	=128	=128	=128	=128	=128	=128
*	*	*	*	*	*	*lig	*
*	*	*	*	*	*	*	*edit
0r	.	0r	.	1c]	.	1e	be-
.	.	.	.	[1d	.	1f	.
=129	=129	=129	=129	=129	=129	=129	=129
0r	.	0r	.	1d]	.	0d	.
*	*	*	*	*Xlig	*	*	*
.	.	.	.	1B-y	.	.	.
*	*	*	*	*	*	*Xlig	*
=130	=130	=130	=130	=130	=130	=130	=130
0r	.	0r	.	1c	.	0e	-ne-
.	.	.	.	[1A	.	.	.
=131	=131	=131	=131	=131	=131	=131	=131
0r	.	0r	.	1A]	.	1f	-di-
.	.	.	.	1B-y	-ne-	2g	.
.	.	.	.	.	.	2f	.
!!LO:LB:g=original
=132	=132	=132	=132	=132	=132	=132	=132
0r	.	0r	.	2c	-di-	2e	.
.	.	.	.	2B-y	.	2d	.
.	.	.	.	2A	.	1c	-ctus
.	.	.	.	2G	.	.	.
=133	=133	=133	=133	=133	=133	=133	=133
0r	.	0r	.	1F	-ctus	2r	.
*	*	*	*	*	*	*	*Xedit
.	.	.	.	.	.	2d	qui
.	.	.	.	2r	.	1e	.
*	*	*	*	*	*Xedit	*	*
.	.	.	.	2G	qui	.	.
=134	=134	=134	=134	=134	=134	=134	=134
0r	.	0r	.	1A	.	1f	.
*	*	*	*	*	*	*lig	*
*	*	*	*	*	*	*	*edit
.	.	.	.	1B-y	.	1d	ve-
=135	=135	=135	=135	=135	=135	=135	=135
0r	.	0r	.	2G	ve-	1g	.
.	.	.	.	1c	.	.	.
*	*	*	*	*	*	*Xlig	*
.	.	.	.	.	.	2e	.
.	.	.	.	2A	.	[2f	.
=136	=136	=136	=136	=136	=136	=136	=136
0r	.	0r	.	1B-y	.	2f]	.
.	.	.	.	.	.	4e	.
.	.	.	.	.	.	4d	.
.	.	.	.	2G	.	2e	.
.	.	.	.	2A	.	2c	.
=137	=137	=137	=137	=137	=137	=137	=137
0r	.	0r	.	2F	.	1d	-nit,
.	.	.	.	1G	.	.	.
.	.	.	.	.	.	2B-y	qui
*	*	*	*	*	*	*	*Xedit
*	*	*	*	*col	*	*	*
.	.	.	.	[2A	.	[2c	ve-
!!LO:LB:g=original
=138	=138	=138	=138	=138	=138	=138	=138
0r	.	0r	.	4A]	.	4c]	.
.	.	.	.	4B-y	.	4d	.
*	*	*	*	*Xcol	*	*	*
.	.	.	.	2c	.	2e-i	.
.	.	.	.	2B-y	.	2d	.
.	.	.	.	4A	.	4c	.
.	.	.	.	4G	.	4B-y	.
=139	=139	=139	=139	=139	=139	=139	=139
0r	.	0r	.	2F	.	2A	.
*	*	*	*	*	*	*col	*
*	*	*	*	*col	*	*	*
.	.	.	.	2.G	.	2.B-y	.
.	.	.	.	4F	.	4A	.
*	*	*	*	*Xcol	*	*Xcol	*
*	*	*	*	*col	*	*	*
.	.	.	.	[2A	.	[2c	.
=140	=140	=140	=140	=140	=140	=140	=140
0r	.	0r	.	4A]	.	4c]	.
.	.	.	.	4G	.	4B-y	.
*	*	*	*	*Xcol	*	*	*
.	.	.	.	4F	.	4A	.
.	.	.	.	4E	.	4G	.
.	.	.	.	2F	.	2A	.
.	.	.	.	2D	.	[2B-y	.
=141	=141	=141	=141	=141	=141	=141	=141
0r	.	0r	.	1G	-nit,	4B-]	.
.	.	.	.	.	.	4G	.
.	.	.	.	.	.	1d	.
*	*	*	*	*	*edit	*	*
.	.	.	.	2D	qui	.	.
.	.	.	.	2E-i	.	4c	.
.	.	.	.	.	.	4B-y	.
=142	=142	=142	=142	=142	=142	=142	=142
0r	.	0r	.	2C	.	2c	.
.	.	.	.	1G	ve-	2G	.
.	.	.	.	.	.	1A	.
.	.	.	.	2F#i	.	.	.
=143	=143	=143	=143	=143	=143	=143	=143
0r	.	0r	.	0Gl	-nit	0Gl	-nit
!!LO:LB:g=original
=144||	=144||	=144||	=144||	=144||	=144||	=144||	=144||
*>E	*>E	*>E	*>E	*>E	*>E	*>E	*>E
*M2/1	*	*M2/1	*	*M2/1	*	*M2/1	*
*met(C|)	*	*met(C|)	*	*met(C|)	*Xedit	*met(C|)	*
!!section: Qui venit
1.D	Qui	0r	.	[0d	in	0r	.
2E	.	.	.	.	.	.	.
=145	=145	=145	=145	=145	=145	=145	=145
2F	.	0r	.	0d_	.	0r	.
1G	ve-	.	.	.	.	.	.
4F	.	.	.	.	.	.	.
4E	.	.	.	.	.	.	.
=146	=146	=146	=146	=146	=146	=146	=146
2F	.	0r	.	0d_	.	0r	.
2G	.	.	.	.	.	.	.
*col	*	*	*	*	*	*	*
3D	-nit	.	.	.	.	.	.
3E	.	.	.	.	.	.	.
3F	.	.	.	.	.	.	.
*Xcol	*	*	*	*	*	*	*
=147	=147	=147	=147	=147	=147	=147	=147
2BB-y	in	0r	.	0d]	.	0r	.
1B-y	no-	.	.	.	.	.	.
4A	-mi-	.	.	.	.	.	.
4G	.	.	.	.	.	.	.
=148	=148	=148	=148	=148	=148	=148	=148
*	*	*	*	*lig	*edit	*	*
1A	-ne,	0r	.	1c	no-	0r	.
2r	.	.	.	1d	.	.	.
*	*edit	*	*	*	*	*	*
2F	in	.	.	.	.	.	.
*	*	*	*	*Xlig	*	*	*
=149	=149	=149	=149	=149	=149	=149	=149
1G	no-	0r	.	1e-i	.	0r	.
1D	.	.	.	[1d	.	.	.
!!LO:LB:g=original
=150	=150	=150	=150	=150	=150	=150	=150
0E-X	-mi-	0r	.	2d]	.	0r	.
*	*	*	*	*col	*	*	*
.	.	.	.	2.c	-mi-	.	.
.	.	.	.	4B-y	.	.	.
*	*	*	*	*Xcol	*	*	*
.	.	.	.	4A	.	.	.
.	.	.	.	4G	.	.	.
=151	=151	=151	=151	=151	=151	=151	=151
[0D	-ne,	0r	.	0F	-ne,	0r	.
=152	=152	=152	=152	=152	=152	=152	=152
0D]	.	0r	.	1r	.	0r	.
.	.	.	.	1f	in	.	.
=153	=153	=153	=153	=153	=153	=153	=153
*lig	*	*	*	*	*	*	*
1C	in	0r	.	2e-i	.	0r	.
*	*	*	*	*	*Xedit	*	*
*	*	*	*	*col	*	*	*
.	.	.	.	2.g	no-	.	.
1BB-y	.	.	.	.	.	.	.
.	.	.	.	4f	.	.	.
*	*	*	*	*Xcol	*	*	*
.	.	.	.	[2d	.	.	.
*Xlig	*	*	*	*	*	*	*
=154	=154	=154	=154	=154	=154	=154	=154
0F	no-	0r	.	2d]	.	0r	.
.	.	.	.	4c	.	.	.
.	.	.	.	4B-y	.	.	.
.	.	.	.	2d	.	.	.
.	.	.	.	[2c	.	.	.
=155	=155	=155	=155	=155	=155	=155	=155
2D	.	0r	.	2c]	.	0r	.
2BB-y	.	.	.	1B-y	-mi-	.	.
1C	-mi-	.	.	.	.	.	.
.	.	.	.	2A	.	.	.
!!LO:PB:g=original
=156	=156	=156	=156	=156	=156	=156	=156
[0BB-y	-ne	0r	.	0B-y	-ne,	1d	in
.	.	.	.	.	.	[1f	no-
=157	=157	=157	=157	=157	=157	=157	=157
0BB-_	.	0r	.	1r	.	2f]	.
.	.	.	.	.	.	2g	.
*	*	*	*	*	*edit	*	*
.	.	.	.	1B-y	in	2.g	-mi-
.	.	.	.	.	.	4f	.
=158	=158	=158	=158	=158	=158	=158	=158
0BB-_	.	0r	.	0f	no-	1d	-ne
.	.	.	.	.	.	2B-y	.
*	*	*	*	*	*	*	*edit
.	.	.	.	.	.	[2b-y	Do-
=159	=159	=159	=159	=159	=159	=159	=159
*	*	*	*	*col	*	*	*
0BB-_	.	0r	.	2.g	-mi-	2b-]	.
.	.	.	.	.	.	4a	.
.	.	.	.	4f	.	4g	.
*	*	*	*	*Xcol	*	*	*
*	*	*	*	*	*	*lig	*
.	.	.	.	1d	-ne	1f	.
=160	=160	=160	=160	=160	=160	=160	=160
0BB-_	.	0r	.	1r	.	1g	.
*	*	*	*	*	*	*Xlig	*
*	*	*	*	*	*Xedit	*	*
.	.	.	.	[1B-y	Do-	1f	-mi-
=161	=161	=161	=161	=161	=161	=161	=161
0BB-]	.	0r	.	2B-]	.	1d	-ni,
.	.	.	.	2A	.	.	.
.	.	.	.	[1F	.	2r	.
*	*	*	*	*	*	*	*Xedit
.	.	.	.	.	.	[2f	Do-
!!LO:LB:g=original
=162	=162	=162	=162	=162	=162	=162	=162
*	*Xedit	*	*	*	*	*	*
0D	Do-	0r	.	2F]	.	2f]	.
.	.	.	.	2G	.	4e	.
.	.	.	.	.	.	4d	.
.	.	.	.	2A	.	1f	.
.	.	.	.	2B-y	.	.	.
=163	=163	=163	=163	=163	=163	=163	=163
*	*	*	*	*	*	*lig	*
[0C	.	0r	.	1.c	.	1e	.
.	.	.	.	.	.	[1g	.
.	.	.	.	2B-y	.	.	.
*	*	*	*	*	*	*Xlig	*
=164	=164	=164	=164	=164	=164	=164	=164
1C]	.	0r	.	1G	.	2g]	.
.	.	.	.	.	.	2f	.
1BB-y	.	.	.	[1B-y	.	2d	.
.	.	.	.	.	.	2e	.
=165	=165	=165	=165	=165	=165	=165	=165
1GG	.	0r	.	1B-]	.	2f	.
.	.	.	.	.	.	2.g	.
1r	.	.	.	1c	.	.	.
.	.	.	.	.	.	4f	.
.	.	.	.	.	.	[2a	.
=166	=166	=166	=166	=166	=166	=166	=166
0D	-mi-	0r	.	0A	-mi-	4a]	.
.	.	.	.	.	.	4g	.
.	.	.	.	.	.	4f#i	.
.	.	.	.	.	.	4e	.
.	.	.	.	.	.	1f#i	-mi-
=167	=167	=167	=167	=167	=167	=167	=167
0GGl	-ni.	0r	.	0Gl	-ni.	0gl	-ni.
!!LO:TX:b:rj:t=Osanna ut supra
==	==	==	==	==	==	==	==
*-	*-	*-	*-	*-	*-	*-	*-
!!!system-decoration: [*]
!!!RDF**kern: j = editorial accidental, optional, paren up
!!!RDF**kern: i = editorial accidental
!!!RDF**kern: l = terminal long
!!!PTL: Gaspar van Weerbeke: Collected Works. II. Masses, Part 2
!!!ISBN: 978-1-59551-518-6
!!!PPR: American Institute of Musicology
!!!PC#: Corpus Mensurabilis Musicae 106/II.2
!!!PDT: 2018
!!!PED: Kolb, Paul
!!!YEC: Copyright 2016, Kolb, Paul
!!!YEM: CC-BY-NC 4.0 (https://creativecommons.org/licenses/by-nc/4.0/legalcode)
!!!EED: Zybina, Karina
!!!EEV: 2021/10/03
!!!title: @{OPR} &mdash; @{OTL}
!!!muse2ps: C^@{COM}^i2I150v90,90,90,120c122z18l2700t130
!!!ONB: from http://www.gaspar-van-weerbeke.sbg.ac.at/gaspar-online-edition with doubled rhythms
